tools/download-figma-icons/icons/outlined-medium/open-hand.svg

<svg width="24" height="24" viewBox="0 0 24 24" fill="none" xmlns="http://www.w3.org/2000/svg">
<path fill-rule="evenodd" clip-rule="evenodd" d="M22.1954 12.4057L11.9399 17.4044L1.49999 14.1562V8.99995H6.71247C9.6802 8.99995 10.2419 10.7602 10.2614 10.8254C10.3492 11.1532 10.6469 11.3812 10.9859 11.3812H16.0514C16.0529 11.3812 16.0537 11.3819 16.0544 11.3819C16.3529 11.3819 16.5959 11.6249 16.5959 11.9227C16.5959 12.2212 16.3529 12.4634 16.0544 12.4634H9.10795C8.69321 12.4634 8.35796 12.7987 8.35796 13.2134C8.35796 13.6282 8.69321 13.9634 9.10795 13.9634H16.0544C16.3949 13.9634 16.7107 13.8719 16.9927 13.7249C17.0047 13.7197 17.0174 13.7212 17.0287 13.7152L21.7214 11.4314C21.9891 11.3017 22.3146 11.4127 22.4451 11.6804C22.5764 11.9497 22.4639 12.2744 22.1954 12.4057ZM23.7936 11.0234C23.3009 10.0124 22.0761 9.5887 21.0644 10.0829L18.0577 11.5462C17.8807 10.6027 17.0549 9.88645 16.0619 9.8827C16.0597 9.8827 16.0567 9.8812 16.0544 9.8812H11.4764C11.0219 9.0277 9.77845 7.49996 6.71247 7.49996H0.749996C0.335998 7.49996 0 7.83521 0 8.24996V14.7082C0 15.0367 0.213749 15.3277 0.527247 15.4244L11.7779 18.9247C11.7809 18.9254 11.7847 18.9254 11.7884 18.9262C11.8544 18.9464 11.9234 18.9562 11.9924 18.9569C11.9954 18.9569 11.9977 18.9584 12.0007 18.9584H12.0014C12.0022 18.9584 12.0022 18.9577 12.0029 18.9577C12.1057 18.9577 12.2024 18.9299 12.2939 18.8902C12.3052 18.8864 12.3179 18.8887 12.3299 18.8827L22.8531 13.7534C23.8641 13.2614 24.2864 12.0367 23.7936 11.0234Z" fill="black"/>
</svg>

<svg width="24" height="24" viewBox="0 0 24 24" fill="none" xmlns="http://www.w3.org/2000/svg"><path fill-rule="evenodd" clip-rule="evenodd" d="M22.195 12.406 11.94 17.404 1.5 14.156V9h5.212c2.968 0 3.53 1.76 3.55 1.825a.75.75 0 0 0 .724.556h5.068a.542.542 0 1 1 0 1.082H9.108a.75.75 0 1 0 0 1.5h6.946c.34 0 .657-.091.939-.238.012-.005.024-.004.036-.01l4.692-2.284a.543.543 0 0 1 .724.25.543.543 0 0 1-.25.725Zm1.599-1.383a2.043 2.043 0 0 0-2.73-.94l-3.006 1.463a2.042 2.042 0 0 0-1.996-1.663l-.008-.002h-4.578C11.022 9.028 9.778 7.5 6.712 7.5H.75a.75.75 0 0 0-.75.75v6.458c0 .329.214.62.527.716l11.25 3.5.011.002c.066.02.135.03.204.03l.009.002h.002a.73.73 0 0 0 .29-.068c.012-.004.025-.001.037-.007l10.523-5.13a2.045 2.045 0 0 0 .94-2.73Z" fill="currentColor"/></svg>
